svg/graphql.svg

<svg viewBox="0 0 20 20" xmlns="http://www.w3.org/2000/svg">
<rect width="100%" height="100%" fill="#E10098"/>
<path fill-rule="evenodd" clip-rule="evenodd" d="M8.60342 16.561L5.10617 14.5394C4.83075 14.8277 4.44271 15.0073 4.01277 15.0073C3.17729 15.0073 2.5 14.3292 2.5 13.4927C2.5 12.7798 2.99194 12.182 3.65449 12.0209V7.97913C2.99194 7.81804 2.5 7.22018 2.5 6.50729C2.5 5.67082 3.17729 4.99272 4.01277 4.99272C4.44269 4.99272 4.83073 5.17228 5.10615 5.46058L8.60341 3.43903C8.56422 3.30435 8.5432 3.16192 8.5432 3.01457C8.5432 2.1781 9.22049 1.5 10.056 1.5C10.8915 1.5 11.5687 2.1781 11.5687 3.01457C11.5687 3.16192 11.5477 3.30435 11.5085 3.43902L15.0053 5.46026C15.2807 5.17215 15.6686 4.99272 16.0983 4.99272C16.9338 4.99272 17.6111 5.67082 17.6111 6.50729C17.6111 7.21988 17.1196 7.81753 16.4575 7.97893V12.0211C17.1196 12.1825 17.6111 12.7801 17.6111 13.4927C17.6111 14.3292 16.9338 15.0073 16.0983 15.0073C15.6686 15.0073 15.2806 14.8279 15.0052 14.5397L11.5085 16.561C11.5477 16.6956 11.5687 16.8381 11.5687 16.9854C11.5687 17.8219 10.8915 18.5 10.056 18.5C9.22049 18.5 8.5432 17.8219 8.5432 16.9854C8.5432 16.8381 8.56422 16.6956 8.60342 16.561ZM10.056 4.52914C10.2031 4.52914 10.3454 4.5081 10.4799 4.46886L15.0526 12.3983C14.8477 12.5947 14.6978 12.8481 14.6285 13.1332H5.48265C5.41339 12.8484 5.26372 12.5951 5.05909 12.3989L9.63203 4.46886C9.76654 4.5081 9.9088 4.52914 10.056 4.52914ZM5.48266 13.8523C5.47739 13.8739 5.47165 13.8954 5.46546 13.9167L8.9629 15.9384C9.2383 15.6503 9.62621 15.4709 10.056 15.4709C10.4857 15.4709 10.8737 15.6503 11.1491 15.9384L14.6458 13.9172C14.6395 13.8957 14.6338 13.8741 14.6285 13.8523H5.48266ZM4.37275 7.97872C5.03444 7.81701 5.52554 7.21957 5.52554 6.50729C5.52554 6.3601 5.50457 6.21781 5.46545 6.08325L8.9629 4.0616C8.97832 4.07773 8.99409 4.09352 9.0102 4.10896L4.43743 12.0386C4.41606 12.0324 4.3945 12.0266 4.37275 12.0213V7.97872ZM15.6744 12.0384C15.6958 12.0322 15.7174 12.0264 15.7392 12.0211V7.97892C15.0771 7.81752 14.5856 7.21987 14.5856 6.50729C14.5856 6.35995 14.6066 6.21751 14.6458 6.08284L11.1491 4.0616C11.1336 4.07773 11.1179 4.09352 11.1017 4.10896L15.6744 12.0384Z" fill="white"/>
</svg>

<svg xmlns="http://www.w3.org/2000/svg" viewBox="0 0 20 20">
  <rect width="100%" height="100%" fill="#E10098"/>
  <path fill="#fff" fill-rule="evenodd" d="m8.6 16.56-3.5-2.02a1.5 1.5 0 0 1-2.6-1.05c0-.71.5-1.3 1.15-1.47V7.98a1.51 1.51 0 1 1 1.46-2.52l3.5-2.02a1.52 1.52 0 0 1 1.45-1.94 1.51 1.51 0 0 1 1.45 1.94L15 5.46a1.5 1.5 0 0 1 2.6 1.05c0 .71-.49 1.3-1.15 1.47v4.04A1.51 1.51 0 1 1 15 14.54l-3.5 2.02a1.52 1.52 0 1 1-2.9 0Zm1.46-12.03c.14 0 .29-.02.42-.06l4.57 7.93c-.2.2-.35.45-.42.73H5.48a1.51 1.51 0 0 0-.42-.73l4.57-7.93c.14.04.28.06.43.06Zm-4.58 9.32-.01.07 3.5 2.02a1.5 1.5 0 0 1 2.18 0l3.5-2.02-.02-.07H5.48Zm-1.1-5.87a1.51 1.51 0 0 0 1.09-1.9l3.5-2.02c0 .02.02.03.04.05l-4.57 7.93-.07-.02V7.98Zm11.3 4.06.06-.02V7.98a1.51 1.51 0 0 1-1.1-1.9l-3.5-2.02c0 .02-.02.03-.04.05l4.57 7.93Z" clip-rule="evenodd"/>
</svg>
